public/assets/images/setting-icon-primary.svg

<svg width="20" height="22" viewBox="0 0 20 22" fill="none" xmlns="http://www.w3.org/2000/svg">
<path fill-rule="evenodd" clip-rule="evenodd" d="M13.3102 20.0298C13.2102 20.7098 12.5902 21.2498 11.8502 21.2498H8.15023C7.41023 21.2498 6.79023 20.7098 6.70023 19.9798L6.43023 18.0898C6.16023 17.9498 5.90023 17.7998 5.64023 17.6298L3.84023 18.3498C3.14023 18.6098 2.37023 18.3198 2.03023 17.6998L0.200234 14.5298C-0.149766 13.8698 0.000234306 13.0898 0.560234 12.6498L2.09023 11.4598C2.08023 11.3098 2.07023 11.1598 2.07023 10.9998C2.07023 10.8498 2.08023 10.6898 2.09023 10.5398L0.570234 9.34977C-0.0197657 8.89977 -0.169766 8.08977 0.200234 7.46977L2.05023 4.27977C2.39023 3.65977 3.16023 3.37977 3.84023 3.64977L5.65023 4.37977C5.91023 4.20977 6.17023 4.05977 6.43023 3.91977L6.70023 2.00977C6.79023 1.30977 7.41023 0.759766 8.14023 0.759766H11.8402C12.5802 0.759766 13.2002 1.29977 13.2902 2.02977L13.5602 3.91977C13.8302 4.05977 14.0902 4.20977 14.3502 4.37977L16.1502 3.65977C16.8602 3.39977 17.6302 3.68977 17.9702 4.30977L19.8102 7.48977C20.1702 8.14977 20.0102 8.92977 19.4502 9.36977L17.9302 10.5598C17.9402 10.7098 17.9502 10.8598 17.9502 11.0198C17.9502 11.1798 17.9402 11.3298 17.9302 11.4798L19.4502 12.6698C20.0102 13.1198 20.1702 13.8998 19.8202 14.5298L17.9602 17.7498C17.6202 18.3698 16.8502 18.6498 16.1602 18.3798L14.3602 17.6598C14.1002 17.8298 13.8402 17.9798 13.5802 18.1198L13.3102 20.0298ZM8.62023 19.2498H11.3802L11.7502 16.6998L12.2802 16.4798C12.7202 16.2998 13.1602 16.0398 13.6202 15.6998L14.0702 15.3598L16.4502 16.3198L17.8302 13.9198L15.8002 12.3398L15.8702 11.7798L15.8733 11.7528C15.9023 11.5025 15.9302 11.2604 15.9302 10.9998C15.9302 10.7298 15.9002 10.4698 15.8702 10.2198L15.8002 9.65977L17.8302 8.07977L16.4402 5.67977L14.0502 6.63977L13.6002 6.28977C13.1802 5.96977 12.7302 5.70977 12.2702 5.51977L11.7502 5.29977L11.3802 2.74977H8.62023L8.25023 5.29977L7.72023 5.50977C7.28023 5.69977 6.84023 5.94977 6.38023 6.29977L5.93023 6.62977L3.55023 5.67977L2.16023 8.06977L4.19023 9.64977L4.12023 10.2098C4.09023 10.4698 4.06023 10.7398 4.06023 10.9998C4.06023 11.2598 4.08023 11.5298 4.12023 11.7798L4.19023 12.3398L2.16023 13.9198L3.54023 16.3198L5.93023 15.3598L6.38023 15.7098C6.81023 16.0398 7.24023 16.2898 7.71023 16.4798L8.24023 16.6998L8.62023 19.2498ZM13.5002 10.9998C13.5002 12.9328 11.9332 14.4998 10.0002 14.4998C8.06724 14.4998 6.50023 12.9328 6.50023 10.9998C6.50023 9.06677 8.06724 7.49977 10.0002 7.49977C11.9332 7.49977 13.5002 9.06677 13.5002 10.9998Z" fill="var(--ion-color-primary-10)"/>
</svg>

<svg width="20" height="22" fill="none" xmlns="http://www.w3.org/2000/svg"><path fill-rule="evenodd" clip-rule="evenodd" d="M13.31 20.03c-.1.68-.72 1.22-1.46 1.22h-3.7c-.74 0-1.36-.54-1.45-1.27l-.27-1.89c-.27-.14-.53-.29-.79-.46l-1.8.72c-.7.26-1.47-.03-1.81-.65L.2 14.53c-.35-.66-.2-1.44.36-1.88l1.53-1.19c-.01-.15-.02-.3-.02-.46 0-.15.01-.31.02-.46L.57 9.35C-.02 8.9-.17 8.09.2 7.47l1.85-3.19c.34-.62 1.11-.9 1.79-.63l1.81.73c.26-.17.52-.32.78-.46l.27-1.91c.09-.7.71-1.25 1.44-1.25h3.7c.74 0 1.36.54 1.45 1.27l.27 1.89c.27.14.53.29.79.46l1.8-.72c.71-.26 1.48.03 1.82.65l1.84 3.18c.36.66.2 1.44-.36 1.88l-1.52 1.19c.01.15.02.3.02.46 0 .16-.01.31-.02.46l1.52 1.19c.56.45.72 1.23.37 1.86l-1.86 3.22c-.34.62-1.11.9-1.8.63l-1.8-.72c-.26.17-.52.32-.78.46l-.27 1.91zm-4.69-.78h2.76l.37-2.55.53-.22c.44-.18.88-.44 1.34-.78l.45-.34 2.38.96 1.38-2.4-2.03-1.58.07-.56.003-.027c.03-.25.057-.493.057-.753 0-.27-.03-.53-.06-.78l-.07-.56 2.03-1.58-1.39-2.4-2.39.96-.45-.35c-.42-.32-.87-.58-1.33-.77l-.52-.22-.37-2.55H8.62L8.25 5.3l-.53.21c-.44.19-.88.44-1.34.79l-.45.33-2.38-.95-1.39 2.39 2.03 1.58-.07.56a7 7 0 00-.06.79c0 .26.02.53.06.78l.07.56-2.03 1.58 1.38 2.4 2.39-.96.45.35c.43.33.86.58 1.33.77l.53.22.38 2.55zM13.5 11a3.5 3.5 0 11-7 0 3.5 3.5 0 017 0z" fill="var(--ion-color-primary-10)"/></svg>
